COLOR/action 16/16/align-horizontal-node.svg

<svg height="24" viewBox="0 0 24 24" width="24" xmlns="http://www.w3.org/2000/svg"><g transform="matrix(.95788965 0 0 .95812186 -1125.0154 -133.63198)"><path d="m1175.4844 139.99414a.50005.50005 0 0 0 -.3633.83203c.9072 1.05846 2.5526 1.56717 4.4824 1.98047 1.9299.41331 4.1651.68775 6.2422 1.03516s3.9979.78053 5.2305 1.43164c.6163.32555 1.0484.69752 1.2851 1.10547s.3137.86228.1543 1.5c-.085.34068-.3259.62302-.789.89648s-1.1311.50618-1.9297.69922c-1.5973.38607-3.7036.62219-5.8145.96875s-4.2307.80035-5.9101 1.68555c-1.6794.88519-2.9334 2.28408-3.0703 4.33789-.054.81545.2455 1.54265.7812 2.07812s1.276.90592 2.1543 1.19727c1.7565.58269 4.1016.84421 6.6328 1.06445 5.0624.44048 10.8854.76475 13.6524 2.60938a.50005.50005 0 1 0 .5546-.83204c-3.233-2.15537-9.092-2.33586-14.1211-2.77343-2.5145-.21879-4.8181-.49205-6.4023-1.01758-.7921-.26277-1.3963-.58792-1.7637-.95508-.3673-.36716-.5293-.74819-.4922-1.30469.1131-1.69619 1.0466-2.7348 2.5391-3.52148s3.5289-1.23914 5.6055-1.58008 4.1891-.57357 5.8886-.98437c.8498-.20541 1.5999-.45315 2.2051-.81055.6053-.3574 1.0832-.85631 1.2481-1.51563.2093-.83758.1085-1.61286-.2578-2.24414-.3663-.63127-.9628-1.10753-1.6836-1.48828-1.4416-.7615-3.426-1.18076-5.5332-1.5332-2.1073-.35244-4.3342-.62638-6.1973-1.02539s-3.3408-.96471-3.9336-1.65625a.50005.50005 0 0 0 -.3945-.17969z" fill="#c43ac4"/><path d="m1186 140v.5 23 .5h1v-.5-23-.5z" fill="#e95420"/><g fill="#1a7fd4" fill-rule="evenodd"><path d="m1184.5 141c-.2761.00003-.5.22387-.5.5v4.00781c0 .27613.2239.49997.5.5h4.0664c.2761-.00003.5-.22387.5-.5v-4.00781c0-.27613-.2239-.49997-.5-.5z"/><path d="m1184.5 147.94233c-.2761.00003-.5.22387-.5.5v4.00781c0 .27613.2239.49997.5.5h4.0664c.2761-.00003.5-.22387.5-.5v-4.00781c0-.27613-.2239-.49997-.5-.5z"/><path d="m1184.5 157.9618c-.2761.00003-.5.22387-.5.5v4.00781c0 .27613.2239.49997.5.5h4.0664c.2761-.00003.5-.22387.5-.5v-4.00781c0-.27613-.2239-.49997-.5-.5z"/></g><path d="m9.125 5.2832031v.5c0 .2645662.2159953.4784868.4804688.4785157h1.4355472v-.5h-1.4355472c-.2644734-.0000288-.4804688-.2139495-.4804688-.4785157zm4.853516 0c0 .2645662-.214043.4784869-.478516.4785157h-1.5v.5h1.5c.264473-.0000289.478516-.2139495.478516-.4785157zm-4.853516 6.6503909v.5c0 .264566.2159953.478487.4804688.478515h1.4355472v-.5h-1.4355472c-.2644734-.000028-.4804688-.213949-.4804688-.478515zm4.853516 0c0 .264566-.214043.478487-.478516.478515h-1.5v.5h1.5c.264473-.000028.478516-.213949.478516-.478515zm-4.853516 9.599609v.5c0 .264566.2159953.48044.4804688.480469h1.4355472v-.5h-1.4355472c-.2644734-.000029-.4804688-.215903-.4804688-.480469zm4.853516 0c0 .264566-.214043.48044-.478516.480469h-1.5v.5h1.5c.264473-.000029.478516-.215903.478516-.480469zm-2.9375 1.466797v.021484.478516h.958984v-.478516-.021484z" opacity=".2" stroke-width=".958006" transform="matrix(1.0439616 0 0 1.0437086 1174.4729 139.47284)"/><path d="m11.041016.50585938v.47851562.0214844h.958984v-.0214844-.47851562zm-1.4355472.95703122c-.2644735.0000288-.4804688.2139495-.4804688.4785156v.5c0-.2645661.2159954-.4784773.4804688-.4785156h1.4355472v-.4785156-.0214844zm2.3945312 0v.0214844.4785156h1.5c.264473.0000383.478516.2139495.478516.4785156v-.5c0-.2645661-.214043-.4784868-.478516-.4785156zm-2.3945312 6.6523438c-.2644735.0000287-.4804688.2139494-.4804688.4785156v.5c0-.2645662.2159954-.4784869.4804688-.4785156h1.4355472v-.5zm2.3945312 0v.5h1.5c.264473.0000287.478516.2139494.478516.4785156v-.5c0-.2645662-.214043-.4784869-.478516-.4785156zm-2.3945312 9.5996096c-.2644735.000028-.4804688.213949-.4804688.478515v.5c0-.264566.2159954-.478487.4804688-.478515h1.4355472v-.5zm2.3945312 0v.5h1.5c.264473.000028.478516.213949.478516.478515v-.5c0-.264566-.214043-.478487-.478516-.478515z" fill="#fff" opacity=".3" stroke-width=".958006" transform="matrix(1.0439616 0 0 1.0437086 1174.4729 139.47284)"/></g></svg>

<?xml version="1.0" encoding="UTF-8" standalone="no"?>
<svg
   xmlns:dc="http://purl.org/dc/elements/1.1/"
   xmlns:cc="http://creativecommons.org/ns#"
   xmlns:rdf="http://www.w3.org/1999/02/22-rdf-syntax-ns#"
   xmlns:svg="http://www.w3.org/2000/svg"
   xmlns="http://www.w3.org/2000/svg"
   xmlns:sodipodi="http://sodipodi.sourceforge.net/DTD/sodipodi-0.dtd"
   xmlns:inkscape="http://www.inkscape.org/namespaces/inkscape"
   height="24"
   viewBox="0 0 24 24"
   width="24"
   version="1.1"
   id="svg15"
   sodipodi:docname="align-horizontal-node.svg"
   inkscape:version="0.92.4 (5da689c313, 2019-01-14)">
  <metadata
     id="metadata21">
    <rdf:RDF>
      <cc:Work
         rdf:about="">
        <dc:format>image/svg+xml</dc:format>
        <dc:type
           rdf:resource="http://purl.org/dc/dcmitype/StillImage" />
      </cc:Work>
    </rdf:RDF>
  </metadata>
  <defs
     id="defs19" />
  <sodipodi:namedview
     pagecolor="#ffffff"
     bordercolor="#666666"
     borderopacity="1"
     objecttolerance="10"
     gridtolerance="10"
     guidetolerance="10"
     inkscape:pageopacity="0"
     inkscape:pageshadow="2"
     inkscape:window-width="1920"
     inkscape:window-height="1016"
     id="namedview17"
     showgrid="true"
     inkscape:zoom="24.080448"
     inkscape:cx="-5.2962585"
     inkscape:cy="11.593537"
     inkscape:window-x="0"
     inkscape:window-y="27"
     inkscape:window-maximized="1"
     inkscape:current-layer="g13" />
  <g
     transform="matrix(.95788965 0 0 .95812186 -1125.0154 -133.63198)"
     id="g13">
    <path
       d="m1175.4844 139.99414a.50005.50005 0 0 0 -.3633.83203c.9072 1.05846 2.5526 1.56717 4.4824 1.98047 1.9299.41331 4.1651.68775 6.2422 1.03516s3.9979.78053 5.2305 1.43164c.6163.32555 1.0484.69752 1.2851 1.10547s.3137.86228.1543 1.5c-.085.34068-.3259.62302-.789.89648s-1.1311.50618-1.9297.69922c-1.5973.38607-3.7036.62219-5.8145.96875s-4.2307.80035-5.9101 1.68555c-1.6794.88519-2.9334 2.28408-3.0703 4.33789-.054.81545.2455 1.54265.7812 2.07812s1.276.90592 2.1543 1.19727c1.7565.58269 4.1016.84421 6.6328 1.06445 5.0624.44048 10.8854.76475 13.6524 2.60938a.50005.50005 0 1 0 .5546-.83204c-3.233-2.15537-9.092-2.33586-14.1211-2.77343-2.5145-.21879-4.8181-.49205-6.4023-1.01758-.7921-.26277-1.3963-.58792-1.7637-.95508-.3673-.36716-.5293-.74819-.4922-1.30469.1131-1.69619 1.0466-2.7348 2.5391-3.52148s3.5289-1.23914 5.6055-1.58008 4.1891-.57357 5.8886-.98437c.8498-.20541 1.5999-.45315 2.2051-.81055.6053-.3574 1.0832-.85631 1.2481-1.51563.2093-.83758.1085-1.61286-.2578-2.24414-.3663-.63127-.9628-1.10753-1.6836-1.48828-1.4416-.7615-3.426-1.18076-5.5332-1.5332-2.1073-.35244-4.3342-.62638-6.1973-1.02539s-3.3408-.96471-3.9336-1.65625a.50005.50005 0 0 0 -.3945-.17969z"
       fill="#c43ac4"
       id="path4" />
    <path
       id="path831"
       d="m 1186,140 v 0.5 23 0.5 h 1 v -0.5 -23 -0.5 z"
       inkscape:connector-curvature="0"
       style="fill:#e95420" />
    <path
       d="m 1184.5,141 c -0.2761,3e-5 -0.5,0.22387 -0.5,0.5 v 4.00781 c 0,0.27613 0.2239,0.49997 0.5,0.5 h 4.0664 c 0.2761,-3e-5 0.5,-0.22387 0.5,-0.5 V 141.5 c 0,-0.27613 -0.2239,-0.49997 -0.5,-0.5 z"
       id="path833"
       inkscape:connector-curvature="0"
       style="fill:#1a7fd4;fill-rule:evenodd" />
    <path
       style="fill:#1a7fd4;fill-rule:evenodd"
       inkscape:connector-curvature="0"
       id="path843"
       d="m 1184.5,147.94233 c -0.2761,3e-5 -0.5,0.22387 -0.5,0.5 v 4.00781 c 0,0.27613 0.2239,0.49997 0.5,0.5 h 4.0664 c 0.2761,-3e-5 0.5,-0.22387 0.5,-0.5 v -4.00781 c 0,-0.27613 -0.2239,-0.49997 -0.5,-0.5 z" />
    <path
       d="m 1184.5,157.9618 c -0.2761,3e-5 -0.5,0.22387 -0.5,0.5 v 4.00781 c 0,0.27613 0.2239,0.49997 0.5,0.5 h 4.0664 c 0.2761,-3e-5 0.5,-0.22387 0.5,-0.5 v -4.00781 c 0,-0.27613 -0.2239,-0.49997 -0.5,-0.5 z"
       id="path845"
       inkscape:connector-curvature="0"
       style="fill:#1a7fd4;fill-rule:evenodd" />
    <path
       style="fill:#000000;stroke-width:0.95800573;fill-opacity:1;opacity:0.2"
       d="M 9.125 5.2832031 L 9.125 5.7832031 C 9.125 6.0477693 9.3409953 6.2616899 9.6054688 6.2617188 L 11.041016 6.2617188 L 11.041016 5.7617188 L 9.6054688 5.7617188 C 9.3409954 5.76169 9.125 5.5477693 9.125 5.2832031 z M 13.978516 5.2832031 C 13.978516 5.5477693 13.764473 5.76169 13.5 5.7617188 L 12 5.7617188 L 12 6.2617188 L 13.5 6.2617188 C 13.764473 6.2616899 13.978516 6.0477693 13.978516 5.7832031 L 13.978516 5.2832031 z M 9.125 11.933594 L 9.125 12.433594 C 9.125 12.69816 9.3409953 12.912081 9.6054688 12.912109 L 11.041016 12.912109 L 11.041016 12.412109 L 9.6054688 12.412109 C 9.3409954 12.412081 9.125 12.19816 9.125 11.933594 z M 13.978516 11.933594 C 13.978516 12.19816 13.764473 12.412081 13.5 12.412109 L 12 12.412109 L 12 12.912109 L 13.5 12.912109 C 13.764473 12.912081 13.978516 12.69816 13.978516 12.433594 L 13.978516 11.933594 z M 9.125 21.533203 L 9.125 22.033203 C 9.125 22.297769 9.3409953 22.513643 9.6054688 22.513672 L 11.041016 22.513672 L 11.041016 22.013672 L 9.6054688 22.013672 C 9.3409954 22.013643 9.125 21.797769 9.125 21.533203 z M 13.978516 21.533203 C 13.978516 21.797769 13.764473 22.013643 13.5 22.013672 L 12 22.013672 L 12 22.513672 L 13.5 22.513672 C 13.764473 22.513643 13.978516 22.297769 13.978516 22.033203 L 13.978516 21.533203 z M 11.041016 23 L 11.041016 23.021484 L 11.041016 23.5 L 12 23.5 L 12 23.021484 L 12 23 L 11.041016 23 z "
       transform="matrix(1.0439616,0,0,1.0437086,1174.4729,139.47284)"
       id="path851" />
    <path
       style="fill:#ffffff;stroke-width:0.95800573;fill-opacity:1;opacity:0.3"
       d="M 11.041016 0.50585938 L 11.041016 0.984375 L 11.041016 1.0058594 L 12 1.0058594 L 12 0.984375 L 12 0.50585938 L 11.041016 0.50585938 z M 9.6054688 1.4628906 C 9.3409953 1.4629194 9.125 1.6768401 9.125 1.9414062 L 9.125 2.4414062 C 9.125 2.1768401 9.3409954 1.9629289 9.6054688 1.9628906 L 11.041016 1.9628906 L 11.041016 1.484375 L 11.041016 1.4628906 L 9.6054688 1.4628906 z M 12 1.4628906 L 12 1.484375 L 12 1.9628906 L 13.5 1.9628906 C 13.764473 1.9629289 13.978516 2.1768401 13.978516 2.4414062 L 13.978516 1.9414062 C 13.978516 1.6768401 13.764473 1.4629194 13.5 1.4628906 L 12 1.4628906 z M 9.6054688 8.1152344 C 9.3409953 8.1152631 9.125 8.3291838 9.125 8.59375 L 9.125 9.09375 C 9.125 8.8291838 9.3409954 8.6152631 9.6054688 8.6152344 L 11.041016 8.6152344 L 11.041016 8.1152344 L 9.6054688 8.1152344 z M 12 8.1152344 L 12 8.6152344 L 13.5 8.6152344 C 13.764473 8.6152631 13.978516 8.8291838 13.978516 9.09375 L 13.978516 8.59375 C 13.978516 8.3291838 13.764473 8.1152631 13.5 8.1152344 L 12 8.1152344 z M 9.6054688 17.714844 C 9.3409953 17.714872 9.125 17.928793 9.125 18.193359 L 9.125 18.693359 C 9.125 18.428793 9.3409954 18.214872 9.6054688 18.214844 L 11.041016 18.214844 L 11.041016 17.714844 L 9.6054688 17.714844 z M 12 17.714844 L 12 18.214844 L 13.5 18.214844 C 13.764473 18.214872 13.978516 18.428793 13.978516 18.693359 L 13.978516 18.193359 C 13.978516 17.928793 13.764473 17.714872 13.5 17.714844 L 12 17.714844 z "
       transform="matrix(1.0439616,0,0,1.0437086,1174.4729,139.47284)"
       id="path862" />
  </g>
</svg>
